icons/codespaces-v4-16.svg

<svg width="16" height="16" viewBox="0 0 16 16" fill="none" xmlns="http://www.w3.org/2000/svg">
<g clip-path="url(#clip0)">
<path fill-rule="evenodd" clip-rule="evenodd" d="M5.46967 2.21967C5.76257 1.92678 6.23744 1.92678 6.53033 2.21967L11.7803 7.46967C12.0732 7.76256 12.0732 8.23744 11.7803 8.53033L6.53033 13.7803C6.23744 14.0732 5.76257 14.0732 5.46967 13.7803L0.21967 8.53033C0.0790177 8.38968 0 8.19891 0 8C0 7.80109 0.0790176 7.61032 0.21967 7.46967L5.46967 2.21967ZM1.81066 8L6 12.1893L10.1893 8L6 3.81066L1.81066 8Z" fill="black"/>
<path fill-rule="evenodd" clip-rule="evenodd" d="M9.46967 2.21967C9.76256 1.92678 10.2374 1.92678 10.5303 2.21967L15.7803 7.46967C15.921 7.61032 16 7.80109 16 8C16 8.19891 15.921 8.38968 15.7803 8.53033L10.5303 13.7803C10.2374 14.0732 9.76256 14.0732 9.46967 13.7803L4.21967 8.53033C3.92678 8.23744 3.92678 7.76256 4.21967 7.46967L9.46967 2.21967ZM10 3.81066L5.81066 8L10 12.1893L14.1893 8L10 3.81066Z" fill="black"/>
</g>
<defs>
<clipPath id="clip0">
<rect width="16" height="16" fill="white"/>
</clipPath>
</defs>
</svg>

<svg xmlns="http://www.w3.org/2000/svg" width="16" height="16" viewBox="0 0 16 16"><g fill-rule="evenodd"><path d="M5.47 2.22a.75.75 0 011.06 0l5.25 5.25a.75.75 0 010 1.06l-5.25 5.25a.75.75 0 01-1.06 0L.22 8.53a.75.75 0 010-1.06l5.25-5.25zM1.81 8L6 12.19 10.19 8 6 3.81 1.81 8z"/><path d="M9.47 2.22a.75.75 0 011.06 0l5.25 5.25a.75.75 0 010 1.06l-5.25 5.25a.75.75 0 01-1.06 0L4.22 8.53a.75.75 0 010-1.06l5.25-5.25zM10 3.81L5.81 8 10 12.19 14.19 8 10 3.81z"/></g></svg>
